src/assets/icons/settings/set.svg

<?xml version="1.0" encoding="UTF-8"?>
<svg width="24px" height="24px" viewBox="0 0 24 24" version="1.1" xmlns="http://www.w3.org/2000/svg" xmlns:xlink="http://www.w3.org/1999/xlink">
    <title>形状结合</title>
    <g id="扩展程序" stroke="none" stroke-width="1" fill="none" fill-rule="evenodd">
        <g id="设置" transform="translate(-40.000000, -411.000000)" fill="#6E7585" fill-rule="nonzero">
            <g id="编组-6备份-7" transform="translate(20.000000, 171.000000)">
                <g id="编组-4备份-28" transform="translate(20.000000, 224.000000)">
                    <g id="形状结合-2" transform="translate(0.000000, 16.000000)">
                        <path d="M19,12 C20.6568542,12 22,13.3431458 22,15 L22,19 C22,20.6568542 20.6568542,22 19,22 L15,22 C13.3431458,22 12,20.6568542 12,19 L9.87378648,19.0007613 C9.42947895,20.7256022 7.86356525,22 6,22 C3.790861,22 2,20.209139 2,18 C2,15.790861 3.790861,14 6,14 C7.86392711,14 9.43008706,15.2748927 9.87404517,17.0002435 L12,17 L12,15 C12,13.3431458 13.3431458,12 15,12 L19,12 Z M19,14 L15,14 C14.4477153,14 14,14.4477153 14,15 L14,15 L14,19 C14,19.5522847 14.4477153,20 15,20 L15,20 L19,20 C19.5522847,20 20,19.5522847 20,19 L20,19 L20,15 C20,14.4477153 19.5522847,14 19,14 L19,14 Z M6,16 C4.8954305,16 4,16.8954305 4,18 C4,19.1045695 4.8954305,20 6,20 C7.1045695,20 8,19.1045695 8,18 C8,16.8954305 7.1045695,16 6,16 Z M9,2 C10.6568542,2 12,3.34314575 12,5 L14.1259548,5.00024347 C14.5699129,3.27489272 16.1360729,2 18,2 C20.209139,2 22,3.790861 22,6 C22,8.209139 20.209139,10 18,10 C16.1364348,10 14.570521,8.72560224 14.1262135,7.00076134 L12,7 L12,9 C12,10.6568542 10.6568542,12 9,12 L5,12 C3.34314575,12 2,10.6568542 2,9 L2,5 C2,3.34314575 3.34314575,2 5,2 L9,2 Z M9,4 L5,4 C4.44771525,4 4,4.44771525 4,5 L4,5 L4,9 C4,9.55228475 4.44771525,10 5,10 L5,10 L9,10 C9.55228475,10 10,9.55228475 10,9 L10,9 L10,5 C10,4.44771525 9.55228475,4 9,4 L9,4 Z M18,4 C16.8954305,4 16,4.8954305 16,6 C16,7.1045695 16.8954305,8 18,8 C19.1045695,8 20,7.1045695 20,6 C20,4.8954305 19.1045695,4 18,4 Z" id="形状结合"></path>
                    </g>
                </g>
            </g>
        </g>
    </g>
</svg>

<svg width="24" height="24" xmlns="http://www.w3.org/2000/svg"><path d="M19 12a3 3 0 0 1 3 3v4a3 3 0 0 1-3 3h-4a3 3 0 0 1-3-3H9.874A4.002 4.002 0 0 1 2 18a4 4 0 0 1 7.874-1H12v-2a3 3 0 0 1 3-3h4zm0 2h-4a1 1 0 0 0-1 1v4a1 1 0 0 0 1 1h4a1 1 0 0 0 1-1v-4a1 1 0 0 0-1-1zM6 16a2 2 0 1 0 0 4 2 2 0 0 0 0-4zM9 2a3 3 0 0 1 3 3h2.126A4.002 4.002 0 0 1 22 6a4 4 0 0 1-7.874 1H12v2a3 3 0 0 1-3 3H5a3 3 0 0 1-3-3V5a3 3 0 0 1 3-3h4zm0 2H5a1 1 0 0 0-1 1v4a1 1 0 0 0 1 1h4a1 1 0 0 0 1-1V5a1 1 0 0 0-1-1zm9 0a2 2 0 1 0 0 4 2 2 0 0 0 0-4z" fill="#6e7585" fill-rule="nonzero"/></svg>
